Adwaita++/actions/16/draw-ellipse-arc.svg

<svg fill="none" height="16" viewBox="0 0 16 16" width="16" xmlns="http://www.w3.org/2000/svg" xmlns:xlink="http://www.w3.org/1999/xlink">
  <defs>
    <clipPath id="clip0">
      <path d="m0 0h16v16h-16z"/>
    </clipPath>
  </defs>
  <g clip-path="url(#clip0)" fill="#444">
    <path d="m4.13074 1c-1.24868.69134-2.28999 1.70373-3.01622 2.93244-.726226 1.22872-1.11099983 2.62915-1.11452 4.05643 0 2.12473.844027 4.16233 2.3464 5.66473 1.50238 1.5024 3.54004 2.3464 5.66473 2.3464 2.12467 0 4.16237-.844 5.66467-2.3464 1.5024-1.5024 2.3465-3.54 2.3465-5.66473-.0027-.44763-.0428-.89425-.12-1.33518h-1.3554c.0914.43922.1384.88654.1402 1.33518 0 1.77057-.7034 3.46863-1.9554 4.72063s-2.95 1.9553-4.72057 1.9553-3.46862-.7033-4.72061-1.9553c-1.25198-1.252-1.95533-2.95006-1.95533-4.72063.0017-1.22823.34221-2.43218.98405-3.47937s1.56013-1.89701 2.65381-2.45595z"/>
    <path d="m4.96692 2.04738c-2.22843 1.14292-3.63037 3.43674-3.63037 5.94022 0 3.6865 2.98948 6.6759 6.67594 6.6759 3.68641 0 6.67591-2.9894 6.67591-6.6759-.0013-.44462-.048-.88655-.1388-1.32183 0 0-9.58803-4.64242-9.58403-4.61839" opacity=".4"/>
  </g>
</svg>

<svg xmlns="http://www.w3.org/2000/svg" fill="none" width="16" height="16" viewBox="0 0 16 16">
 <g clip-path="url(#clip0)">
  <path fill="#444" d="M4.13074 1C2.88206 1.69134 1.84075 2.70373 1.11452 3.93244C0.388294 5.16116 0.00352017 6.56159 0 7.98887C0 10.1136 0.844027 12.1512 2.3464 13.6536C3.84878 15.156 5.88644 16 8.01113 16C10.1358 16 12.1735 15.156 13.6758 13.6536C15.1782 12.1512 16.0223 10.1136 16.0223 7.98887C16.0196 7.54124 15.9795 7.09462 15.9023 6.65369H14.5469C14.6383 7.09291 14.6853 7.54023 14.6871 7.98887C14.6871 9.75944 13.9837 11.4575 12.7317 12.7095C11.4797 13.9615 9.7817 14.6648 8.01113 14.6648C6.24056 14.6648 4.54251 13.9615 3.29052 12.7095C2.03854 11.4575 1.33519 9.75944 1.33519 7.98887C1.33689 6.76064 1.6774 5.55669 2.31924 4.5095C2.96108 3.46231 3.87937 2.61249 4.97305 2.05355L4.13074 1Z"/>
  <path fill="#444" opacity=".4" d="M4.96692 2.04738C2.73849 3.1903 1.33655 5.48412 1.33655 7.9876C1.33655 11.6741 4.32603 14.6635 8.01249 14.6635C11.6989 14.6635 14.6884 11.6741 14.6884 7.9876C14.6871 7.54298 14.6404 7.10105 14.5496 6.66577C14.5496 6.66577 4.96157 2.02335 4.96557 2.04738"/>
 </g>
 <defs>
  <clipPath id="clip0">
   <rect fill="#fff" width="16" height="16"/>
  </clipPath>
 </defs>
</svg>
